X: 12285
T: Fairy Hurlers, The
R: reel
M: 4/4
K: Cmajor
AB||c2 gc acgc|~c2 ge dBGB|((5cdcBc) gc acgc|fage dBGB|
c2 gc acgc|(Bc) ge dcBd|c2 gc acgc|(fa) ge (dB) GB||
A2 c/B/A eAcA|.A/.A/A ge dBGB|A2 c/B/A eAcA|(gfg)d BGGB|
A2 c/B/A eAcA|~A2 (ge) dBGB|A2 c/B/A eAcA|((5gagfg) gd BGGB||
|:(cdef) (gfge)|(cdec) (dBGB)|(cdef) (gfge)|afge dBGB:|
|:c/B/A eA fAeA|c/B/A eA dBGB|c/B/A eA fAeA|((5gagfg) gd BGGB:|
|:Aceg ^fdec|Acec dBGB|Aceg ^fdef|gfge dBGB:|
|:(c/B/A) eA (c/B/A) eA|(c/B/A) eA dBGB|(c/B/A) eA (c/B/A) ef|(gfg)e dBGB:|

